!!!!SEGMENT: pl-sa--381--a-viii-21--009_anonim--bolze-cesarza-chroln.krn
!!!cenid: 18xx:1315
!!!COM: Anonim
!!!COM-rismID: pe30004985
!!!CDT:
!!!CNT:
!!!OTL: Boże cesarza chroń
!!!PDT:
!!!AGN: Sacred
!!!SMS-siglum: PL-SA
!!!SMS-shelfmark: 381/ A VIII 21
!!!SMS-shelfwork: 004 W
!!!SMS-variant:
!!!SMS-altvar:
!!!NIFC-rismSourceID: 1001106437
!!!NIFC-rismChildID: 1001106437
!!!NIFC-islandoraID: none
!!!URL-pdf-islandora:
!!!URL-scan: https://bc.bdsandomierz.pl/dlibra/publication/1685/edition/1653/content @EN{Scan in the Sandomierz Diocese Digital Library} @PL{Skany w portalu Cyfrowa Biblioteka Diecezjalna w Sandomierzu}
!!!IIIF:
!!!ONB-nifc: UWAGA: str. 10. Utwory w zbiorze: 1. Kyrie, 2. Gloria, 3. Credo, 4. Przyjmij Boże tę ofiarę, 5. Sanctus, 6. Aniele stróżu duszy, 7. Agnus Dei, 8. Dona nobis, 9. Boże cesarza chroń, 10. Ciebie Boże wychwalamy, 11. Chwałę Panu wdzięcznym pieniem
!!!AIN: 1 soprn
!!!key: F
!!!OMD: Allegro Moderato
**kern	**text
*part1	*part1
*staff1	*staff1
*ICvox	*
*Isoprn	*
*I"	*
*>[A,A,B,B]	*>[A,A,B,B]
*>A	*>A
*clefG2	*
*k[b-]	*
*F:	*
*M2/2	*
*met(c|)	*
=1	=1
!LO:TX:t=P::problem=znaki przykluczowe&colon;f# b-	!
2cc\	Bo-
4dd\	-że
4cc\	Ce-
=2	=2
4.cc\	-sa-
8a/	-rza
2f/	chroń
=3	=3
2ee/	wład-
4ee\	-co
4ee\	wspa-
=4	=4
4cc\	-nia-
8ryy	.
8cc\	.
!!LO:LB:g=original
2ee\	-ły
=5	=5
2cc/	Pa-
4b-\	-nuj
4cc\	na
=6	=6
2a/	sła-
4a/	-wę
!LO:SIC:v:s=4bn	!
4an/	na
=7	=7
2cc/	sła-
!LO:TX:t=P:problem=bemol na wysokości dd	!
4bn\	-wę
4b\	nam
2r	.
=8:|!|:	=8:|!|:
*>B	*>B
!LO:N:vis=1	!
2cc\	wro-
4a/	-gów
4a/	za-
!!LO:LB:g=original
=9	=9
2a/	-mia-
4a/	-ry
4a/	złam
=10	=10
4ff\	wład-
4dd\	-co
4cc\	wspa-
4cc#X\	-nia-
=11	=11
2ee\	-ły
2cc\	Bo-
=12	=12
2ff\	.
4dd\	-że
4dd\	.
=13	=13
!LO:N:vis=2.	!
2a/	Bo-
!!LO:LB:g=original
4cc\	.
4cc\	-że
=14	=14
2a/	Ce-
4a/	-sa-
4g/	-rza
=15	=15
2f/	chroń
=:|!	=:|!
*-	*-
!!!system-decoration: s1
!!!ENC: Kamil Watkowski
!!!END: 2020-12-08
!!!ENC: Marta Lawrence
!!!END: 2022-01-07
!!!YEC: Copyright 2022 Narodowy Instytut Fryderyka Chopina (https://polishscores.org)
!!!YEM: License CC-BY-4.0 (https://creativecommons.org/licenses/by/4.0)
